packages/katcn/src/icons/svg/secure.svg

<svg width="24" height="25" viewBox="0 0 24 25" fill="none" xmlns="http://www.w3.org/2000/svg">
<path fill-rule="evenodd" clip-rule="evenodd" d="M10.1844 2.36206C11.3407 1.84733 12.6335 1.84733 13.7899 2.36206L13.8074 2.37008L19.99 5.26646C19.9979 5.27016 20.0057 5.27397 20.0135 5.27787C21.3986 5.9715 22.2194 7.49578 21.9487 9.12987C21.4347 12.3201 19.8781 18.6089 14.1082 23.2321L14.0975 23.2406L14.0974 23.2406C12.8386 24.2212 11.1356 24.2212 9.87681 23.2406L9.866 23.2321L9.86606 23.2321C4.09471 18.6077 2.53881 12.317 2.02519 9.12751C2.02152 9.10475 2.01864 9.08187 2.01656 9.05892C1.88846 7.64759 2.51779 5.98438 4.08545 5.26576L10.1612 2.37277C10.1689 2.3691 10.1766 2.36553 10.1844 2.36206ZM11.0085 4.18446L4.93815 7.07489L4.92259 7.08214C4.31095 7.36059 3.94712 8.07521 4.00575 8.84662C4.49496 11.8578 5.93917 17.5194 11.1107 21.6665C11.6446 22.0792 12.3297 22.0792 12.8635 21.6665C18.0564 17.5023 19.4911 11.8112 19.9745 8.80953L19.9754 8.80437C20.1014 8.04681 19.7307 7.37847 19.1282 7.07135L12.9684 4.18562C12.3356 3.90653 11.6415 3.90614 11.0085 4.18446Z" fill="black"/>
<path fill-rule="evenodd" clip-rule="evenodd" d="M16.5989 8.17519C17.0412 8.50596 17.1316 9.13264 16.8008 9.57492L12.3136 15.5749C12.1258 15.8261 11.8309 15.9746 11.5172 15.976C11.2034 15.9774 10.9073 15.8314 10.7172 15.5818L8.2044 12.2818C7.86981 11.8424 7.95478 11.215 8.39418 10.8804C8.83358 10.5458 9.46102 10.6308 9.7956 11.0702L11.5056 13.3159L15.1992 8.37711C15.5299 7.93483 16.1566 7.84443 16.5989 8.17519Z" fill="black"/>
</svg>

<svg xmlns="http://www.w3.org/2000/svg" fill="none" viewBox="0 0 24 25"><path fill="#000" fill-rule="evenodd" d="M10.184 2.362a4.4 4.4 0 0 1 3.606 0l.017.008 6.183 2.896.024.012c1.385.694 2.205 2.218 1.935 3.852-.514 3.19-2.07 9.479-7.84 14.102l-.011.009a3.395 3.395 0 0 1-4.221 0l-.011-.009C4.095 18.608 2.54 12.317 2.026 9.128l-.01-.07c-.128-1.41.502-3.074 2.07-3.792l6.075-2.893zm.825 1.822-6.07 2.89-.016.008c-.612.279-.976.993-.917 1.765.489 3.01 1.933 8.672 7.105 12.82a1.395 1.395 0 0 0 1.752 0c5.193-4.165 6.628-9.856 7.111-12.857l.001-.006c.126-.757-.244-1.426-.847-1.733l-6.16-2.885a2.4 2.4 0 0 0-1.96-.002" clip-rule="evenodd"/><path fill="#000" fill-rule="evenodd" d="M16.599 8.175a1 1 0 0 1 .202 1.4l-4.487 6a1 1 0 0 1-1.597.007l-2.513-3.3a1 1 0 1 1 1.592-1.212l1.71 2.246 3.693-4.939a1 1 0 0 1 1.4-.202" clip-rule="evenodd"/></svg>
